X: 64
T:Chirping of the Nightingale
M:6/8
L:1/8
Q:110
R:Jig
K:G
g2g g>fe|f2g a>ba|g>ag g>fe|d2c BG2||
B>cd e2d|g2d BG2|B>cd e2d|g2d BG2|B>cd efd|g>fe dec|B>AB A2G|G6||

